usr/share/icons/biglinux-icons-material/24/actions/distribute-graph-directed.svg

<svg xmlns="http://www.w3.org/2000/svg" viewBox="0 0 24 24">
  <defs id="defs3051">
    <style type="text/css" id="current-color-scheme">
      .ColorScheme-Text {
        color:#dedede;
      }
      .ColorScheme-Highlight {
        color:#3daee9;
      }
      </style>
  </defs>
 <path 
     style="fill:currentColor;fill-opacity:1;stroke:none" 
     d="M 16.78125 6.5625 L 12.9375 10.75 L 13.6875 11.4375 L 17.53125 7.25 C 17.389586 7.114608 17.057853 6.827192 16.78125 6.5625 z M 7.21875 6.625 L 6.46875 7.3125 L 10.277344 11.414062 L 11.03125 10.71875 L 7.21875 6.625 z M 11.5 14.4375 L 11.5 16.5625 L 12.5 16.5625 L 12.5 14.4375 C 12.102857 14.4419 11.795206 14.438196 11.5 14.4375 z "
     class="ColorScheme-Text"
     />
 <path 
     style="fill:currentColor;fill-opacity:1;stroke:none" 
     d="M 5.5 4 A 1.4999959 1.5 0 0 0 4 5.5 A 1.4999959 1.5 0 0 0 5.5 7 A 1.4999959 1.5 0 0 0 7 5.5 A 1.4999959 1.5 0 0 0 5.5 4 z M 18.5 4 A 1.4999959 1.5 0 0 0 17 5.5 A 1.4999959 1.5 0 0 0 18.5 7 A 1.4999959 1.5 0 0 0 20 5.5 A 1.4999959 1.5 0 0 0 18.5 4 z M 12 11 A 1.4999959 1.5 0 0 0 10.5 12.5 A 1.4999959 1.5 0 0 0 12 14 A 1.4999959 1.5 0 0 0 13.5 12.5 A 1.4999959 1.5 0 0 0 12 11 z M 12 17 A 1.4999959 1.5 0 0 0 10.5 18.5 A 1.4999959 1.5 0 0 0 12 20 A 1.4999959 1.5 0 0 0 13.5 18.5 A 1.4999959 1.5 0 0 0 12 17 z "
     class="ColorScheme-Highlight"
     />
</svg>

<svg xmlns="http://www.w3.org/2000/svg" viewBox="0 0 24 24"><path d="m16.781 6.563-3.843 4.187.75.688L17.53 7.25c-.141-.135-.473-.423-.75-.688zm-9.562.062-.75.688 3.808 4.101.754-.695L7.22 6.625zm4.281 7.813v2.124h1v-2.125c-.397.005-.705.001-1 0z" style="fill:currentColor;fill-opacity:1;stroke:none;color:#dedede"/><path d="M5.5 4A1.5 1.5 0 0 0 4 5.5 1.5 1.5 0 0 0 5.5 7 1.5 1.5 0 0 0 7 5.5 1.5 1.5 0 0 0 5.5 4zm13 0A1.5 1.5 0 0 0 17 5.5 1.5 1.5 0 0 0 18.5 7 1.5 1.5 0 0 0 20 5.5 1.5 1.5 0 0 0 18.5 4zM12 11a1.5 1.5 0 0 0-1.5 1.5A1.5 1.5 0 0 0 12 14a1.5 1.5 0 0 0 1.5-1.5A1.5 1.5 0 0 0 12 11zm0 6a1.5 1.5 0 0 0-1.5 1.5A1.5 1.5 0 0 0 12 20a1.5 1.5 0 0 0 1.5-1.5A1.5 1.5 0 0 0 12 17z" style="fill:currentColor;fill-opacity:1;stroke:none;color:#3daee9"/></svg>
